X: 1
T: Reinl\"ander i D
O: Norway
M: C
L: 1/8
K: D
|: D2 d2 A2 f2 | f2 ed e2 GF |1,3 EF GA B2 cd | ed cB AG FE \
                            :|2,4 EF GA BA fe | d2 d2 d4 :|[K:=c=f]
K: Am
|: e2- ed cB A2 | e2- ed cB A2 |1,2 E2 ^GB A2 cA | B2 e2 e4 \
                              :|2,4 E2 ^GB cB AG | A2 A2 A4 :|
